!!!OTL: 1364. Bei der Musterung. / [Hess. Rekrutenlied aus alter Zeit.]
!!!ARE: Europa, Mitteleuropa, Deutschland, Hessen, Wetterau, Langsdorf
!!!SCT: E1364
!!!TXL: @@DE
!!!YEM: Copyright 1995, estate of Helmut Schaffrath.
**kern	**text
*ICvox	*
*M4/4	*
*met(c)	*
*k[b-]	*
*F:	*
=1	=1
!LO:TX:a:t=Marschtakt.	!
!LO:TX:a:t=Aus Langsdorf in der Wetterau.	!
{2cc	Ʒu
4ff	Frank-
4a	-furt
=2	=2
4cc	vor
4cc	dem
2g}	Thor
=3	=3
{2b-	da
4dd	ſteht
4dd	das
=4	=4
4.cc	Schü-
8b-	-tʒen-
4.a}	-corps,
{8cc	die
=5	=5
4cc	thun
4cc	ſo
4ff	hel-
4ff	-le
=6	=6
2dd	bli-
4dd}	-tʒen
{4b-	mit
=7	=7
4dd	ih-
4dd	-ren
4ff	ſcharfen
4dd	.
=8	=8
2cc	Spi-
2a}	-tʒen
=9	=9
{2cc	Ach,
4ff	wä-
4a	-ren
=10	=10
4cc	wir
4cc	ʒu
2g}	Haus,
=11	=11
{2b-	hier
4dd	hälts
4dd	kein
=12	=12
4.cc	Menſch
8b-	mehr
4.a}	aus!
{8cc	die
=13	=13
4cc	thun
4cc	ſo
4ff	hel-
4ff	-le
=14	=14
2dd	bli-
4dd}	-tʒen
{4b-	mit
=15	=15
4dd	ih-
4dd	-ren
4ff	ſcharfen
4dd	.
=16	=16
2cc	Spi-
2a}	-tʒen
=17	=17
{2cc	Ach,
4ff	wä-
4a	-ren
=18	=18
4cc	wir
4cc	ʒu
2g}	Haus,
=19	=19
{2b-	hier
4dd	hälts
4dd	kein
=20	=20
4.cc	Menſch
8b-	mehr
2a}	aus!
==	==
!!!AGN: Staende -, Soldaten -, Kriegs - Lied
!!!ONB: ESAC (Essen Associative Code) Database: ERK3
!!!AMT: simple quadruple
!!!AIN: vox
!!!EED: Helmut Schaffrath
!!!EEV: 1.0
!!!GTL: Staendelieder (Berufslieder). 1. Soldaten- und Kriegslieder. Soldatenlieder seit dem 30jaehr. Kriege.
!!!URL-scan: https://rosdok.uni-rostock.de/mcrviewer/recordIdentifier/rosdok_ppn745177999/iview2/phys_0240.iview2?x=-128.77276441889285&y=199.18538504908793&scale=0.5870222003877487&rotation=0&layout=singlePageLayout
!!!ENC: Anna Maria Matuszewska
!!!EEV: 2024/12/30
*-	*-
